X:1
T:An Drochaid Luideach (The Twisted Bridge)
M:12/8
L:1/8
R:Reel
Z:Transcribed by Juergen Gier
K:AMix
ce (3eee feef eca2|ce (3eee feef ecB2|\
ce (3eee feef eca2|AAAB ~c3d BGA2:|
|:ae (3eee feef eca2|ae (3eee feef ecB2|\
ae (3eee feef eca2|AAAB ~c3d BGA2:|

